X:7
T:The Path Not Taken
C:Rob Lindauer
M:3/4
L:1/8
K:C
EF|"C"E3 D C2|"C"G3 F E2|"C"G2 c2 B2|"F" B2 A4|
"F"A3 c FE|"F"F3 A GF|"B"DF B2 A2|"C"G6||
"C"E3 G CB,|"C"C3 D EF|"C"G2 c2 B2|"F"B2 A4|
"F"A3 c AF|"C"G3 A GF|"B" DF c2 B2|"C"c6||
"Am"A3 G Ac|"G"BA B2 G2|"F"F3 A GF|"G"GF G4|
"Am"c3 e dc|"G"dc d2 B2|"Am"A3 c Bc|"G" d6||
"C"E3 G CB,|"C"CD E2 F2|"Gm"G2 _B2 G2|"A7"G2 A4|
"F"A3c BA|"C"GA G2 F2|"G"EF D2 C2|"C"C6|]
